!!!OTL: Hongjun laiguonian
!!!ARE: Asia, China,ÿJiangxi Guixi
!! IV, 225
!!!SCT: C2072
!!!YEM: Copyright 1995, estate of Helmut Schaffrath.
**kern
*ICvox
*Ivox
*M2/4
*k[b-e-]
*B-:
{8ff
8ff
8gg
8bb-
=1
4.ff
8dd
=2
8ccc
16ccc
16ddd
8ccc
8bb-
=3
8ff
16gg
16bb-
4ccc}
=4
{8ccc
8fff
8ccc
8bb-
=5
8bb-
8ff
4gg
=6
8ccc
16ff
16gg
8ccc
16bb-
16gg
=7
4ff}
{8fff
8fff
=8
8ccc
8ddd
8fff
8r}
=9
{4fff
8ccc
8ddd
=10
2fff}
==
!!!AGN: Xiaodiao
!!!AMT: simple duple
!!!AIN: vox
!!!EED: Helmut Schaffrath
!!!EEV: 1.0
*-
